icons/VSCodium-Dark.svg

<svg width="256" height="256" viewBox="0 0 256 256" fill="none" xmlns="http://www.w3.org/2000/svg">
<g clip-path="url(#clip0_33_871)">
<path d="M196 0H60C26.8629 0 0 26.8629 0 60V196C0 229.137 26.8629 256 60 256H196C229.137 256 256 229.137 256 196V60C256 26.8629 229.137 0 196 0Z" fill="#242938"/>
<g clip-path="url(#clip1_33_871)">
<path d="M124.455 43.9795C119.46 47.1838 118.02 53.8215 121.238 58.7985C138.929 86.1948 143.105 106.859 141.293 124.968C133.971 159.646 118.055 166.681 104.146 166.681C90.5661 166.681 94.2026 144.332 104.41 137.79C110.504 133.986 118.309 131.513 124.299 131.513C130.235 131.513 135.048 126.716 135.048 120.798C135.048 114.877 130.235 110.081 124.299 110.081C117.303 110.081 110.439 111.551 104.032 114.053C105.341 107.877 105.824 101.203 104.132 94.1083C101.563 83.3353 94.1676 73.0453 81.3261 63.0703C79.0774 61.3203 76.2249 60.5345 73.3951 60.8845C70.5654 61.2345 67.9911 62.6905 66.2394 64.934C62.5959 69.6065 63.4394 76.3405 68.1259 79.9753C78.5874 88.1005 82.0419 94.1153 83.2231 99.066C84.4044 104.017 83.4541 109.328 81.0811 116.626C78.0484 126.461 74.5274 135.24 72.9839 143.66C72.2244 147.804 72.1596 152.313 71.9636 155.917C64.4299 148.574 61.4811 138.879 61.4811 124.712C61.4794 118.794 56.6669 113.995 50.7326 113.997C44.8019 114.002 39.9964 118.797 39.9946 124.712C39.9946 144.06 45.6524 162.47 60.8161 174.752C74.5431 187.83 109.45 182.996 109.45 203.991C109.45 209.916 118.123 212.8 124.058 212.8C130.144 212.8 137.804 208.732 137.804 203.991C137.804 180.17 162.908 165.692 204.234 165.755C210.17 165.764 214.986 160.971 214.995 155.052C215.005 149.132 210.203 144.325 204.267 144.314C201.441 144.311 198.686 144.407 195.97 144.568C200.59 133.702 202.64 121.739 202.216 108.817C202.02 102.9 197.054 98.2628 191.123 98.4553C185.185 98.6478 180.534 103.606 180.728 109.526C181.288 126.445 180.654 141.553 168.049 149.517C164.465 151.78 160.298 153.743 156.347 153.743C159.415 145.399 161.732 136.591 162.68 127.098C163.286 121.039 163.35 113.841 162.659 108.25C161.586 99.5875 160.291 89.763 163.58 82.3623C166.534 75.9888 173.152 73.32 182.87 73.32C188.801 73.3148 193.606 68.518 193.608 62.6048C193.611 56.6845 188.804 51.8825 182.87 51.8773C168.429 51.8773 157.483 59.4775 151.277 68.6598C148.033 61.7298 144.081 54.588 139.307 47.196C137.765 44.8073 135.336 43.129 132.552 42.5253C131.173 42.226 129.749 42.1998 128.359 42.4483C126.97 42.6985 125.643 43.2183 124.455 43.9795Z" fill="url(#paint0_linear_33_871)"/>
</g>
</g>
<defs>
<linearGradient id="paint0_linear_33_871" x1="39.9946" y1="42.2785" x2="209.164" y2="205.503" gradientUnits="userSpaceOnUse">
<stop stop-color="#62A0EA"/>
<stop offset="1" stop-color="#1A5FB4"/>
</linearGradient>
<clipPath id="clip0_33_871">
<rect width="256" height="256" fill="white"/>
</clipPath>
<clipPath id="clip1_33_871">
<rect width="175" height="175" fill="white" transform="translate(40 40)"/>
</clipPath>
</defs>
</svg>

<svg xmlns="http://www.w3.org/2000/svg" width="256" height="256" fill="none" viewBox="0 0 256 256"><g clip-path="url(#a)"><path fill="#242938" d="M196 0H60A60 60 0 0 0 0 60v136a60 60 0 0 0 60 60h136a60 60 0 0 0 60-60V60a60 60 0 0 0-60-60"/><g clip-path="url(#b)"><path fill="url(#c)" d="M124.46 43.98a10.7 10.7 0 0 0-3.22 14.82c17.69 27.4 21.86 48.06 20.05 66.17-7.32 34.68-23.23 41.71-37.14 41.71-13.58 0-9.95-22.35.26-28.89 6.1-3.8 13.9-6.28 19.89-6.28 5.94 0 10.75-4.8 10.75-10.71s-4.81-10.72-10.75-10.72c-7 0-13.86 1.47-20.27 3.97 1.31-6.17 1.8-12.85.1-19.94-2.57-10.77-9.96-21.06-22.8-31.04a10.76 10.76 0 0 0-15.1 1.86 10.7 10.7 0 0 0 1.9 15.05c10.46 8.12 13.91 14.14 15.1 19.09 1.17 4.95.22 10.26-2.15 17.56-3.03 9.83-6.55 18.61-8.1 27.03-.76 4.14-.82 8.65-1.02 12.26-7.53-7.35-10.48-17.04-10.48-31.2a10.73 10.73 0 0 0-21.49 0c0 19.34 5.66 37.75 20.83 50.03 13.72 13.08 48.63 8.25 48.63 29.24 0 5.93 8.67 8.81 14.6 8.81 6.1 0 13.75-4.07 13.75-8.8 0-23.83 25.1-38.3 66.43-38.25a10.73 10.73 0 1 0 .04-21.44q-4.23.01-8.3.26c4.62-10.87 6.67-22.83 6.25-35.75a10.74 10.74 0 0 0-11.1-10.36 10.73 10.73 0 0 0-10.4 11.07c.57 16.91-.07 32.02-12.67 39.99-3.59 2.26-7.75 4.22-11.7 4.22a108 108 0 0 0 6.33-26.64c.6-6.06.67-13.26-.02-18.85-1.07-8.66-2.37-18.49.92-25.89 2.95-6.37 9.57-9.04 19.29-9.04a10.73 10.73 0 1 0 0-21.44 37.8 37.8 0 0 0-31.6 16.78 181 181 0 0 0-11.96-21.46 10.75 10.75 0 0 0-14.86-3.22"/></g></g><defs><clipPath id="a"><path fill="#fff" d="M0 0h256v256H0z"/></clipPath><clipPath id="b"><path fill="#fff" d="M40 40h175v175H40z"/></clipPath><linearGradient id="c" x1="39.99" x2="209.16" y1="42.28" y2="205.5" gradientUnits="userSpaceOnUse"><stop stop-color="#62A0EA"/><stop offset="1" stop-color="#1A5FB4"/></linearGradient></defs></svg>
